src/status/22/keepassx-locked.svg

<svg width="22" height="22" viewBox="0 0 22 22" xmlns="http://www.w3.org/2000/svg">
 <path d="m20.148438 20.640625v-1.195313l-18.296876-0.023437v1.1875c0 0.648437 0.015626 1.199219 0.03125 1.214844 0.019532 0.019531 4.136719 0.027343 9.148438 0.023437l9.117188-0.011718zm-10.550782-2.875v-1.21875h-7.746094v2.4375h7.746094zm10.550782 0v-1.195313l-7.578126-0.023437v2.4375l7.578126-0.023437zm-10.558594-2.863281 0.011718-1.230469-7.726562 0.023437-0.011719 1.167969c-0.007812 0.644531-0.003906 1.199219 0.011719 1.230469 0.019531 0.050781 0.785156 0.0625 3.859375 0.050781l3.839844-0.011719zm10.558594 0.011718v-1.21875l-7.578126-0.023437v1.210937c0 0.664063 0.015626 1.222657 0.035157 1.242188 0.015625 0.019531 1.722656 0.027344 3.785156 0.019531l3.757813-0.011719zm0-2.875v-1.21875h-18.273438l-0.011719 1.167969c-0.007812 0.644531-0.003906 1.199219 0.011719 1.230469 0.019531 0.050781 1.796875 0.0625 9.148438 0.050781l9.125-0.011719zm-13.910157-3.121093c0-1.609375 0.03125-1.914063 0.273438-2.578125 0.546875-1.480469 1.777343-2.589844 3.355469-3.023438 0.488281-0.136718 1.800781-0.136718 2.289062 0 1.351562 0.371094 2.457031 1.238282 3.089844 2.421875 0.460937 0.867188 0.539062 1.296875 0.574218 3.148438l0.027344 1.519531h3.019532l-0.023438-1.742188c-0.019531-1.554687-0.03125-1.792968-0.125-2.222656-0.351562-1.601562-1.03125-2.882812-2.109375-3.976562-1.136719-1.152344-2.429687-1.847656-4.085937-2.203125-0.4375-0.09375-0.660157-0.109375-1.511719-0.109375-1.070313 0-1.554688 0.066406-2.390625 0.335937-2.394532 0.773438-4.269532 2.625-5.070313 5.007813-0.320312 0.957031-0.34375 1.164062-0.371093 3.121094l-0.023438 1.789062h3.082031z" fill="rgb(18.039216%, 20.392157%, 25.098041%)"/>
 <path d="m18.996094 14c-1.105469 0-2 0.910156-2 2.035156v0.964844c-0.550782 0-1 0.445312-1 1v3.003906c0 0.550782 0.445312 1 1 1h4c0.554687 0 1-0.445312 1-1v-3.003906c0-0.550781-0.445313-1-1-1v-0.964844c0-1.125-0.890625-2.035156-2.003906-2.035156m0 1.003906c0.558593 0 1.003906 0.4375 1.003906 1v1h-2v-1c0-0.558594 0.445312-1 1-1z" fill="rgb(92.156863%, 79.607844%, 54.509807%)"/>
</svg>

<svg xmlns="http://www.w3.org/2000/svg" xmlns:xlink="http://www.w3.org/1999/xlink" width="22" height="22" viewBox="0 0 22 22">
<path fill-rule="nonzero" fill="rgb(18.039216%, 20.392157%, 25.098041%)" fill-opacity="1" d="M 20.148438 20.640625 L 20.148438 19.445312 L 1.851562 19.421875 L 1.851562 20.609375 C 1.851562 21.257812 1.867188 21.808594 1.882812 21.824219 C 1.902344 21.84375 6.019531 21.851562 11.03125 21.847656 L 20.148438 21.835938 Z M 9.597656 17.765625 L 9.597656 16.546875 L 1.851562 16.546875 L 1.851562 18.984375 L 9.597656 18.984375 Z M 20.148438 17.765625 L 20.148438 16.570312 L 12.570312 16.546875 L 12.570312 18.984375 L 20.148438 18.960938 Z M 9.589844 14.902344 L 9.601562 13.671875 L 1.875 13.695312 L 1.863281 14.863281 C 1.855469 15.507812 1.859375 16.0625 1.875 16.09375 C 1.894531 16.144531 2.660156 16.15625 5.734375 16.144531 L 9.574219 16.132812 Z M 20.148438 14.914062 L 20.148438 13.695312 L 12.570312 13.671875 L 12.570312 14.882812 C 12.570312 15.546875 12.585938 16.105469 12.605469 16.125 C 12.621094 16.144531 14.328125 16.152344 16.390625 16.144531 L 20.148438 16.132812 Z M 20.148438 12.039062 L 20.148438 10.820312 L 1.875 10.820312 L 1.863281 11.988281 C 1.855469 12.632812 1.859375 13.1875 1.875 13.21875 C 1.894531 13.269531 3.671875 13.28125 11.023438 13.269531 L 20.148438 13.257812 Z M 6.238281 8.917969 C 6.238281 7.308594 6.269531 7.003906 6.511719 6.339844 C 7.058594 4.859375 8.289062 3.75 9.867188 3.316406 C 10.355469 3.179688 11.667969 3.179688 12.15625 3.316406 C 13.507812 3.6875 14.613281 4.554688 15.246094 5.738281 C 15.707031 6.605469 15.785156 7.035156 15.820312 8.886719 L 15.847656 10.40625 L 18.867188 10.40625 L 18.84375 8.664062 C 18.824219 7.109375 18.8125 6.871094 18.71875 6.441406 C 18.367188 4.839844 17.6875 3.558594 16.609375 2.464844 C 15.472656 1.3125 14.179688 0.617188 12.523438 0.261719 C 12.085938 0.167969 11.863281 0.152344 11.011719 0.152344 C 9.941406 0.152344 9.457031 0.21875 8.621094 0.488281 C 6.226562 1.261719 4.351562 3.113281 3.550781 5.496094 C 3.230469 6.453125 3.207031 6.660156 3.179688 8.617188 L 3.15625 10.40625 L 6.238281 10.40625 Z M 6.238281 8.917969 "/>
<path fill-rule="nonzero" fill="rgb(92.156863%, 79.607844%, 54.509807%)" fill-opacity="1" d="M 18.996094 14 C 17.890625 14 16.996094 14.910156 16.996094 16.035156 L 16.996094 17 C 16.445312 17 15.996094 17.445312 15.996094 18 L 15.996094 21.003906 C 15.996094 21.554688 16.441406 22.003906 16.996094 22.003906 L 20.996094 22.003906 C 21.550781 22.003906 21.996094 21.558594 21.996094 21.003906 L 21.996094 18 C 21.996094 17.449219 21.550781 17 20.996094 17 L 20.996094 16.035156 C 20.996094 14.910156 20.105469 14 18.992188 14 M 18.992188 15.003906 C 19.550781 15.003906 19.996094 15.441406 19.996094 16.003906 L 19.996094 17.003906 L 17.996094 17.003906 L 17.996094 16.003906 C 17.996094 15.445312 18.441406 15.003906 18.996094 15.003906 Z M 18.992188 15.003906 "/>
</svg>
